src/dsmComponents/Icons/car-collision-24px.svg

<?xml version="1.0" encoding="UTF-8"?>
<svg width="24px" height="14px" viewBox="0 0 24 14" version="1.1" xmlns="http://www.w3.org/2000/svg" xmlns:xlink="http://www.w3.org/1999/xlink">
    <!-- Generator: Sketch 59.1 (86144) - https://sketch.com -->
    <title>car-collision-24px</title>
    <desc>Created with Sketch.</desc>
    <defs>
        <path d="M21.436,7.3136 L13.172,4.8866 C12.88,4.8006 12.794,4.5416 12.982,4.3106 L14.653,2.2446 C14.839,2.0136 15.232,1.8946 15.524,1.9806 L21.001,3.5886 C21.293,3.6746 21.56,3.9876 21.595,4.2836 L21.905,6.9306 C21.939,7.2266 21.728,7.3986 21.436,7.3136 M21.197,9.5156 C21.068,9.9606 20.606,10.2166 20.165,10.0866 C19.723,9.9576 19.469,9.4916 19.598,9.0456 C19.727,8.6016 20.189,8.3456 20.63,8.4756 C21.072,8.6046 21.326,9.0706 21.197,9.5156 M19.6836,11.8292 L21.8786,12.4742 L21.7266,12.9952 C21.6206,13.3642 21.2356,13.5772 20.8706,13.4702 L20.8706,13.4702 L20.0036,13.2152 C19.6376,13.1072 19.4276,12.7202 19.5336,12.3512 L19.5336,12.3512 L19.6836,11.8292 Z M13.0813,12.2388 L13.0813,12.7818 C13.0813,13.1658 12.7723,13.4788 12.3913,13.4788 L12.3913,13.4788 L11.4873,13.4788 C11.1073,13.4788 10.7963,13.1658 10.7963,12.7818 L10.7963,12.7818 L10.7963,12.2388 L13.0813,12.2388 Z M3.0305,12.2388 L3.0305,12.7818 C3.0305,13.1658 2.7205,13.4788 2.3395,13.4788 L2.3395,13.4788 L1.4355,13.4788 C1.0555,13.4788 0.7445,13.1658 0.7445,12.7818 L0.7445,12.7818 L0.7445,12.2388 L3.0305,12.2388 Z M13.925,1.7126 C14.242,1.3126 14.897,1.1026 15.385,1.2466 L15.385,1.2466 L21.509,3.0446 C21.998,3.1886 22.439,3.7196 22.493,4.2296 L22.493,4.2296 L22.682,6.0276 L22.78,6.9526 L23.578,7.1866 C23.889,7.2776 24.068,7.6066 23.977,7.9196 C23.886,8.2336 23.56,8.4146 23.249,8.3226 L23.249,8.3226 L22.891,8.2176 C22.893,8.6646 22.832,9.2036 22.728,9.5626 L22.728,9.5626 L22.036,11.9586 L19.842,11.3146 L19.842,11.3136 L13.608,9.4826 L13.608,9.2076 C13.608,8.9676 13.576,8.6686 13.52,8.3636 C13.998,8.2366 14.35,7.7986 14.35,7.2786 C14.35,6.6596 13.851,6.1566 13.238,6.1566 L13.238,6.1566 L12.759,6.1566 L12.543,5.6256 L11.862,3.9516 C11.825,3.8616 11.76,3.7846 11.707,3.7006 L11.707,3.7006 L12.232,3.8546 L12.808,3.1256 Z M10.103,3.2932 C10.507,3.2932 10.943,3.5402 11.204,3.8792 C11.275,3.9642 11.335,4.0552 11.375,4.1532 L11.375,4.1532 L12.057,5.8272 L12.361,6.5732 L12.407,6.6862 L13.238,6.6862 C13.562,6.6862 13.825,6.9512 13.825,7.2782 C13.825,7.6052 13.562,7.8702 13.238,7.8702 L13.238,7.8702 L12.865,7.8702 C12.87,7.8872 12.874,7.9062 12.879,7.9232 L12.879,7.9232 C12.938,8.1332 12.989,8.3612 13.024,8.5852 C13.025,8.5882 13.025,8.5912 13.025,8.5942 C13.06,8.8152 13.081,9.0302 13.081,9.2072 L13.081,9.2072 L13.081,11.7032 L10.796,11.7032 L10.796,11.7022 L3.031,11.7022 L3.031,11.7032 L0.745,11.7032 L0.745,9.2072 C0.745,8.8332 0.836,8.2982 0.961,7.8702 L0.961,7.8702 L0.587,7.8702 C0.263,7.8702 0,7.6052 0,7.2782 C0,6.9512 0.263,6.6862 0.587,6.6862 L0.587,6.6862 L1.42,6.6862 L1.772,5.8242 L2.452,4.1532 C2.645,3.6792 3.215,3.2932 3.724,3.2932 L3.724,3.2932 Z M10.766,8.7542 C10.306,8.7542 9.933,9.1302 9.933,9.5942 C9.933,10.0572 10.306,10.4332 10.766,10.4332 C11.226,10.4332 11.598,10.0572 11.598,9.5942 C11.598,9.1302 11.226,8.7542 10.766,8.7542 Z M3.061,8.7542 C2.601,8.7542 2.229,9.1302 2.229,9.5942 C2.229,10.0572 2.601,10.4332 3.061,10.4332 C3.521,10.4332 3.894,10.0572 3.894,9.5942 C3.894,9.1302 3.521,8.7542 3.061,8.7542 Z M9.766,3.9592 L4.061,3.9592 C3.756,3.9592 3.413,4.1842 3.298,4.4582 L3.298,4.4582 L2.267,6.9122 C2.152,7.1872 2.306,7.4122 2.61,7.4122 L2.61,7.4122 L11.217,7.4122 C11.37,7.4122 11.484,7.3562 11.546,7.2652 C11.577,7.2202 11.595,7.1662 11.598,7.1062 C11.601,7.0472 11.589,6.9812 11.56,6.9122 L11.56,6.9122 L10.53,4.4582 C10.413,4.1842 10.071,3.9592 9.766,3.9592 L9.766,3.9592 Z M10.0611556,0.361137037 L10.0846,0.3701 C10.1086,0.3831 10.1296,0.4061 10.1416,0.4331 L10.1416,0.4331 L10.4966,1.2111 L10.8836,0.9311 C10.9016,0.9171 10.9306,0.9211 10.9576,0.9401 C10.9846,0.9601 11.0056,0.9921 11.0126,1.0241 L11.0126,1.0241 L11.4216,3.1021 C11.4276,3.1301 11.4206,3.1541 11.4036,3.1661 C11.3976,3.1701 11.3896,3.1731 11.3816,3.1731 C11.3506,3.1761 11.3126,3.1511 11.2906,3.1131 L11.2906,3.1131 L10.6096,1.9601 L10.2636,2.2111 C10.2476,2.2221 10.2246,2.2221 10.2016,2.2091 C10.1786,2.1971 10.1566,2.1741 10.1446,2.1471 L10.1446,2.1471 L9.5096,0.8271 C9.4906,0.7891 9.4936,0.7501 9.5156,0.7331 L9.5156,0.7331 L10.0216,0.3681 C10.0376,0.3561 10.0606,0.3571 10.0846,0.3701 Z M12.0795,0.0006 L12.6975,0.0646 C12.7175,0.0666 12.7345,0.0836 12.7435,0.1086 C12.7525,0.1346 12.7535,0.1666 12.7445,0.1946 L12.7445,0.1946 L12.4965,1.0136 L12.9705,1.0626 C12.9925,1.0656 13.0125,1.0876 13.0195,1.1206 C13.0265,1.1526 13.0215,1.1906 13.0055,1.2186 L13.0055,1.2186 L11.9405,3.0456 C11.9275,3.0706 11.9055,3.0836 11.8865,3.0816 C11.8785,3.0806 11.8715,3.0786 11.8645,3.0726 C11.8395,3.0536 11.8275,3.0106 11.8365,2.9666 L11.8365,2.9666 L12.0885,1.6486 L11.6635,1.6046 C11.6435,1.6026 11.6275,1.5866 11.6185,1.5616 C11.6085,1.5366 11.6085,1.5056 11.6165,1.4776 L11.6165,1.4776 L12.0125,0.0646 C12.0235,0.0236 12.0515,-0.0024 12.0795,0.0006 L12.0795,0.0006 Z" id="path-1"></path>
    </defs>
    <g id="Final" stroke="none" stroke-width="1" fill="none" fill-rule="evenodd">
        <g id="All-Nucleo-Icons" transform="translate(-608.000000, -936.000000)">
            <g id="Solo/Nucleo/24px/car-collision" transform="translate(608.000000, 931.000000)">
                <g id="collision" transform="translate(0.000000, 5.000000)">
                    <g id="Colour/Default-Colour">
                        <g>
                            <mask id="mask-2" fill="white">
                                <use xlink:href="#path-1"></use>
                            </mask>
                            <use id="Mask" fill="#000000" xlink:href="#path-1"></use>
                            <g id="colour/neutral/chia" mask="url(#mask-2)" fill="#737373">
                                <g transform="translate(-20.000000, -32.000000)" id="Colour">
                                    <rect x="0" y="0" width="64" height="64"></rect>
                                </g>
                            </g>
                        </g>
                    </g>
                </g>
            </g>
        </g>
    </g>
</svg>

<svg width="24" height="14" xmlns="http://www.w3.org/2000/svg" xmlns:xlink="http://www.w3.org/1999/xlink"><defs><path d="M21.436 7.314l-8.264-2.427c-.292-.086-.378-.345-.19-.576l1.671-2.066c.186-.231.579-.35.871-.264l5.477 1.608c.292.086.559.399.594.695l.31 2.647c.034.296-.177.468-.469.383m-.239 2.202a.831.831 0 01-1.032.57.84.84 0 01-.567-1.04.832.832 0 011.032-.57.839.839 0 01.567 1.04m-1.513 2.313l2.195.645-.152.521a.691.691 0 01-.856.475l-.867-.255a.699.699 0 01-.47-.864l.15-.522zm-6.603.41v.543a.694.694 0 01-.69.697h-.904a.696.696 0 01-.69-.697v-.543h2.284zm-10.05 0v.543c0 .384-.31.697-.692.697h-.903a.696.696 0 01-.691-.697v-.543H3.03zM13.925 1.713c.317-.4.972-.61 1.46-.466l6.124 1.798c.489.144.93.675.984 1.185l.189 1.798.098.925.798.234a.592.592 0 01-.329 1.136l-.358-.105c.002.447-.059.986-.163 1.345l-.692 2.396-2.194-.644v-.001l-6.234-1.831v-.275c0-.24-.032-.54-.088-.844.478-.127.83-.565.83-1.085 0-.62-.499-1.122-1.112-1.122h-.479l-.216-.531-.681-1.674c-.037-.09-.102-.167-.155-.251l.525.154.576-.73zm-3.822 1.58c.404 0 .84.247 1.101.586.071.085.131.176.171.274l.682 1.674.304.746.046.113h.831a.59.59 0 01.587.592.59.59 0 01-.587.592h-.373l.014.053c.059.21.11.438.145.662l.001.01c.035.22.056.435.056.612v2.496H.745V9.207c0-.374.091-.909.216-1.337H.587A.59.59 0 010 7.278a.59.59 0 01.587-.592h.833l.352-.862.68-1.67c.193-.475.763-.86 1.272-.86zm.663 5.461a.837.837 0 00-.833.84c0 .463.373.84.833.84.46 0 .832-.377.832-.84a.836.836 0 00-.832-.84zm-7.705 0a.836.836 0 00-.832.84c0 .463.372.84.832.84.46 0 .833-.377.833-.84a.837.837 0 00-.833-.84zM9.766 3.96H4.061c-.305 0-.648.225-.763.5L2.267 6.911c-.115.275.039.5.343.5h8.607c.153 0 .267-.056.329-.147a.304.304 0 00.052-.159.446.446 0 00-.038-.194l-1.03-2.454c-.117-.274-.459-.499-.764-.499zm.295-3.598l.024.01a.135.135 0 01.057.062l.355.778.387-.28c.018-.014.047-.01.074.01.027.02.048.051.055.083l.409 2.078c.006.028-.001.052-.018.064a.041.041 0 01-.022.007c-.031.003-.07-.022-.091-.06L10.61 1.96l-.346.251c-.016.011-.04.011-.062-.002a.133.133 0 01-.057-.062L9.51.827C9.49.79 9.494.75 9.516.733l.506-.365c.016-.012.039-.01.063.002zm2.018-.36l.618.064c.02.002.038.019.046.044a.14.14 0 01.002.086l-.248.819.473.049c.022.003.042.025.05.058a.144.144 0 01-.014.098L11.94 3.046c-.012.025-.034.038-.053.036a.039.039 0 01-.023-.01c-.025-.018-.037-.061-.028-.105l.252-1.318-.424-.044c-.02-.002-.037-.018-.046-.043a.134.134 0 01-.002-.084l.396-1.413c.011-.041.04-.067.067-.064z" id="car-collision-24px_svg__a"/></defs><use fill="#737373" xlink:href="#car-collision-24px_svg__a" fill-rule="evenodd"/></svg>
